X:1035
T:Boy In The Boat, The
R:reel
Z:transcribed by Dave Marshall
M:C|
K:D
|: ABAF DFAF | GFEF G2FG | AD (3DDD AD (3DDD | AFGE FDFG |
ABAF DFAF | GFEF G2FG | ~A3d ~B3d |1 cAGE EDFG :|2 cAGE EDD2 |
|: cded cAAB | cAdB cAAB | cded cAAB | cAGE EDD2 |
cded cAAB | cAdB cAag | ~f3d efed | cAGE EDD2 :|
